Origami/32x32/apps/kde.svg

<svg width="32" height="32" version="1.1" xmlns="http://www.w3.org/2000/svg">
 <rect transform="matrix(0,-1,-1,0,0,0)" x="-31" y="-30" width="28" height="28" rx="1.4" ry="1.4" style="opacity:.2"/>
 <rect transform="matrix(0,-1,-1,0,0,0)" x="-30" y="-30" width="28" height="28" rx="1.4" ry="1.4" style="fill:#2c9bff"/>
 <path d="m18 6-4 0.6054688v14.46875l4-1.074219v-5.589844l4 6.589844 4-1.5-5-6 5.001953-6.4980469-3.880859-1.0019531-4.121094 6.558594zm-8.1445312 3.9238281c-0.094592 0-0.1891851 0.036841-0.2617188 0.1093749l-1.5722656 1.572266c-0.1450675 0.145067-0.1101437 0.352307 0 0.52539l1.6269531 2.554688c-0.1205423 0.250221-0.2249229 0.50791-0.3125 0.771484-0.00385 0.01134-0.00989 0.02184-0.013672 0.0332l-2.9511718 0.65625c-0.2002702 0.044513-0.3710937 0.165942-0.3710937 0.371097v1.964844c0 0.205155 0.1708235 0.32659 0.3710938 0.371094l2.9511718 0.65625c0.00646 0.0194 0.016787 0.03731 0.023437 0.05664 0.085245 0.256042 0.186352 0.506527 0.3027344 0.75l-1.6269531 2.552735c-0.1101437 0.173083-0.1450675 0.380323 0 0.52539l1.5722661 1.572266c0.1450675 0.145067 0.3783676 0.145067 0.523438 0l2.550781-1.625c0.250759 0.121949 0.509105 0.227636 0.773437 0.316406 0.01735 0.0061 0.03339 0.01554 0.05078 0.02148l0.654296 2.949218c0 0.205156 0.16594 0.371094 0.371094 0.371094h2.220703c0.205155 0 0.32659-0.170824 0.371094-0.371094l0.654297-3.039062c0.300604-0.113013 0.592418-0.248149 0.873047-0.404297l2.490234 1.78125c0.145068 0.145067 0.378371 0.145067 0.523438 0l1.572265-1.572266c0.145068-0.145067 0.110144-0.352307 0-0.52539l-0.947265-1.4375-0.09961 0.03711c-0.225251 0.08461-0.478825-0.0032-0.603515-0.208984l-0.996092-1.640621c-0.829936 1.985195-2.789933 3.380859-5.076172 3.380859-3.037566 0-5.5-2.462434-5.5-5.5 0-2.33092 1.452799-4.31835 3.5-5.119141v-1.095703l-0.0078 0.03516c-0.02208 0.0075-0.04245 0.01957-0.06445 0.02734-0.260825 0.08662-0.515895 0.189688-0.763672 0.308594l-2.54689-1.623047c-0.072536-0.0725334-0.1671269-0.1093749-0.2617192-0.1093749z" style="opacity:.2"/>
 <path d="m18 5l-4 0.6054688v14.46875l4-1.074219v-5.589844l4 6.589844 4-1.5-5-6 5.001953-6.4980469-3.880859-1.0019531-4.121094 6.558594v-6.558594zm-8.1445312 3.9238281c-0.0945921 0-0.1891851 0.036841-0.2617188 0.109375l-1.5722656 1.5722659c-0.1450675 0.145067-0.1101437 0.352307 0 0.52539l1.6269531 2.554688c-0.1205423 0.250221-0.2249229 0.50791-0.3125 0.771484-0.00385 0.01134-0.0098899 0.021843-0.0136719 0.033203l-2.9511718 0.65625c-0.2002703 0.04451-0.3710938 0.165939-0.3710938 0.371094v1.964844c0 0.205155 0.1708235 0.32659 0.3710938 0.371094l2.9511718 0.65625c0.00646 0.0194 0.0167875 0.03731 0.0234375 0.05664 0.085245 0.256042 0.186352 0.506527 0.3027344 0.75l-1.6269531 2.552735c-0.1101437 0.173083-0.1450675 0.380323 0 0.52539l1.5722656 1.572266c0.1450675 0.145067 0.3783676 0.145067 0.523438 0l2.550781-1.625c0.250759 0.121949 0.509105 0.227636 0.773437 0.316406 0.01735 0.0061 0.033392 0.015545 0.050782 0.021485l0.654296 2.949218c0 0.205156 0.16594 0.371094 0.371094 0.371094h2.220703c0.205155 0 0.32659-0.170824 0.371094-0.371094l0.654297-3.039062c0.300604-0.113013 0.592418-0.248149 0.873047-0.404297l2.490234 1.78125c0.145068 0.145067 0.378371 0.145067 0.523438 0l1.572265-1.572266c0.145068-0.145067 0.110144-0.352307 0-0.52539l-0.947265-1.4375-0.09961 0.037109c-0.225251 0.08461-0.478825-0.0032-0.603515-0.208984l-0.996094-1.640625c-0.829936 1.985195-2.789933 3.380859-5.076172 3.380859-3.037566 0-5.5-2.462434-5.5-5.5 0-2.33092 1.452799-4.31835 3.5-5.119141v-1.095703l-0.007812 0.035156c-0.022081 0.007501-0.042454 0.019574-0.064454 0.027344-0.260825 0.08662-0.515895 0.189688-0.763672 0.308594l-2.546874-1.6230469c-0.072536-0.0725335-0.1671269-0.109375-0.2617192-0.109375z" style="fill:#ffffff"/>
 <path d="M 3.4003906 2 C 2.6247906 2 2 2.6247906 2 3.4003906 L 2 4.4003906 C 2 3.6247906 2.6247906 3 3.4003906 3 L 28.599609 3 C 29.375209 3 30 3.6247906 30 4.4003906 L 30 3.4003906 C 30 2.6247906 29.375209 2 28.599609 2 L 3.4003906 2 z" style="fill:#ffffff;opacity:.2"/>
</svg>

<svg xmlns="http://www.w3.org/2000/svg" width="32" height="32" version="1.1">
 <rect style="opacity:0.2" width="28" height="28" x="-31" y="-30" rx="1.4" ry="1.4" transform="matrix(0,-1,-1,0,0,0)"/>
 <rect style="fill:#2c9bff" width="28" height="28" x="-30" y="-30" rx="1.4" ry="1.4" transform="matrix(0,-1,-1,0,0,0)"/>
 <path style="opacity:0.2" d="M 18,6 14,6.6054688 V 21.074219 L 18,20 V 14.410156 L 22,21 26,19.5 21,13.5 26.001953,7.0019531 22.121094,6 18,12.558594 Z M 9.8554688,9.9238281 c -0.094592,0 -0.1891851,0.036841 -0.2617188,0.1093749 l -1.5722656,1.572266 c -0.1450675,0.145067 -0.1101437,0.352307 0,0.52539 l 1.6269531,2.554688 c -0.1205423,0.250221 -0.2249229,0.50791 -0.3125,0.771484 -0.00385,0.01134 -0.00989,0.02184 -0.013672,0.0332 l -2.9511718,0.65625 C 6.1708235,16.190994 6,16.312423 6,16.517578 V 17.5 18.482422 c 0,0.205155 0.1708235,0.32659 0.3710938,0.371094 l 2.9511718,0.65625 c 0.00646,0.0194 0.016787,0.03731 0.023437,0.05664 0.085245,0.256042 0.186352,0.506527 0.3027344,0.75 l -1.6269531,2.552735 c -0.1101437,0.173083 -0.1450675,0.380323 0,0.52539 L 9.59375,24.966797 c 0.1450675,0.145067 0.3783676,0.145067 0.523438,0 l 2.550781,-1.625 c 0.250759,0.121949 0.509105,0.227636 0.773437,0.316406 0.01735,0.0061 0.03339,0.01554 0.05078,0.02148 l 0.654296,2.949218 c 0,0.205156 0.16594,0.371094 0.371094,0.371094 h 2.220703 c 0.205155,0 0.32659,-0.170824 0.371094,-0.371094 l 0.654297,-3.039062 c 0.300604,-0.113013 0.592418,-0.248149 0.873047,-0.404297 l 2.490234,1.78125 c 0.145068,0.145067 0.378371,0.145067 0.523438,0 l 1.572265,-1.572266 c 0.145068,-0.145067 0.110144,-0.352307 0,-0.52539 l -0.947265,-1.4375 -0.09961,0.03711 c -0.225251,0.08461 -0.478825,-0.0032 -0.603515,-0.208984 L 20.576172,19.619141 C 19.746236,21.604336 17.786239,23 15.5,23 12.462434,23 10,20.537566 10,17.5 c 0,-2.33092 1.452799,-4.31835 3.5,-5.119141 v -1.095703 l -0.0078,0.03516 c -0.02208,0.0075 -0.04245,0.01957 -0.06445,0.02734 -0.260825,0.08662 -0.515895,0.189688 -0.763672,0.308594 L 10.117188,10.033203 C 10.044652,9.9606696 9.9500611,9.9238281 9.8554688,9.9238281 Z"/>
 <path style="fill:#ffffff" d="M 18 5 L 14 5.6054688 L 14 20.074219 L 18 19 L 18 13.410156 L 22 20 L 26 18.5 L 21 12.5 L 26.001953 6.0019531 L 22.121094 5 L 18 11.558594 L 18 5 z M 9.8554688 8.9238281 C 9.7608767 8.9238281 9.6662837 8.9606691 9.59375 9.0332031 L 8.0214844 10.605469 C 7.8764169 10.750536 7.9113407 10.957776 8.0214844 11.130859 L 9.6484375 13.685547 C 9.5278952 13.935768 9.4235146 14.193457 9.3359375 14.457031 C 9.3320875 14.468371 9.3260476 14.478874 9.3222656 14.490234 L 6.3710938 15.146484 C 6.1708235 15.190994 6 15.312423 6 15.517578 L 6 16.5 L 6 17.482422 C 6 17.687577 6.1708235 17.809012 6.3710938 17.853516 L 9.3222656 18.509766 C 9.3287256 18.529166 9.3390531 18.547076 9.3457031 18.566406 C 9.4309481 18.822448 9.5320551 19.072933 9.6484375 19.316406 L 8.0214844 21.869141 C 7.9113407 22.042224 7.8764169 22.249464 8.0214844 22.394531 L 9.59375 23.966797 C 9.7388175 24.111864 9.9721176 24.111864 10.117188 23.966797 L 12.667969 22.341797 C 12.918728 22.463746 13.177074 22.569433 13.441406 22.658203 C 13.458756 22.664303 13.474798 22.673748 13.492188 22.679688 L 14.146484 25.628906 C 14.146484 25.834062 14.312424 26 14.517578 26 L 16.738281 26 C 16.943436 26 17.064871 25.829176 17.109375 25.628906 L 17.763672 22.589844 C 18.064276 22.476831 18.35609 22.341695 18.636719 22.185547 L 21.126953 23.966797 C 21.272021 24.111864 21.505324 24.111864 21.650391 23.966797 L 23.222656 22.394531 C 23.367724 22.249464 23.3328 22.042224 23.222656 21.869141 L 22.275391 20.431641 L 22.175781 20.46875 C 21.95053 20.55336 21.696956 20.46555 21.572266 20.259766 L 20.576172 18.619141 C 19.746236 20.604336 17.786239 22 15.5 22 C 12.462434 22 10 19.537566 10 16.5 C 10 14.16908 11.452799 12.18165 13.5 11.380859 L 13.5 10.285156 L 13.492188 10.320312 C 13.470107 10.327813 13.449734 10.339886 13.427734 10.347656 C 13.166909 10.434276 12.911839 10.537344 12.664062 10.65625 L 10.117188 9.0332031 C 10.044652 8.9606696 9.9500611 8.9238281 9.8554688 8.9238281 z"/>
 <path style="fill:#ffffff;opacity:0.2" d="M 3.4003906 2 C 2.6247906 2 2 2.6247906 2 3.4003906 L 2 4.4003906 C 2 3.6247906 2.6247906 3 3.4003906 3 L 28.599609 3 C 29.375209 3 30 3.6247906 30 4.4003906 L 30 3.4003906 C 30 2.6247906 29.375209 2 28.599609 2 L 3.4003906 2 z"/>
</svg>
